X:1
T:D.MARCO VCCELLINI
T:in 1645
T:in 1645
C:D.MARCO VCCELLINI
Z:in 1645
%%score 1 2 3
L:1/8
M:4/4
K:F
V:1 treble nm="Violin" snm="Violin"
V:2 bass nm="Cello" snm="Cello"
V:3 bass nm="Harpsichord" snm="Harpsichord"
V:1
 z8 | z8 | d3 e2 f2 f | d2 ^c2 d2 G2 | A2 FG ABcA | df_ed cd_ec | d2 d3 e f2 | f2 c3 d e2 | %8
 e2 B3 c d2 | d2 a2 ABcd | ef g2 GABc | de f2 FGAB | cd e2 EFGA | Bc d2 DEFG | AB c2 CDEF | %15
 GA B2 B,CDE | FG A3 B c2 | c2 G3 A B2 | B2 F3 G A2 | A4 abag | fgf_e ddcB | ABAG F2 FG/A/ | %22
 B2 GA/B/ c2 AB/c/ | d3 c B3 A | G3 A/B/ c2 B/A/B/G/ | AD G4 ^F2 | G8 |] %27
V:2
 G,3 A, B,2 B,2 | G,3 ^F,2 G,2 C, | D,2 B,,C, D,E,F,D, | G,B,A,G, F,D,G,G,, | D,3 B,, F,4 | %5
 B,,6 B,,2 | G,3 A, B,2 B,2 | F,3 G, A,2 A,2 | E,3 F, G,2 G,2 | D2 D,E, F,G,A,B, | %10
 C2 C,D, _E,F,G,A, | B,2 B,,C, D,E,F,G, | A,2 A,,B,, C,D,_E,F, | G,3 A, B,2 B,2 | F,3 G, A,2 A,2 | %15
 E,3 F, G,2 G,2 | D2 D,E, F,G,A,B, | C2 C,D, _E,F,G,A, | B,2 B,,C, D,E,F,G, | A,B,A,G, F,G,F,E, | %20
 D,_E,D,C, B,,4 | F,G,F,_E, D,_E,D,C, | B,,C,/D,/ E,2 C,D,/E,/ F,2 | D,E,/F,/ G,3 F, _E,2 | %24
 E,D, C,4 G,,2 | D,2 E,2 D,4 | G,,8 |] %27
V:3
 G,3 A,2 B,2 B, | G,2 ^F,2 G,2 C,2 | D,2 B,,C, D,E,F,D, | G,2 A,G, F,D,G,G,, | D,3 B,, F,2 F,,2 | %5
 B,,4 C,4 | G,3 A, B,2 B,2 | F,3 G, A,2 A,2 | E,3 F, G,2 G,2 | D,3 E, F,G,A,B, | %10
 C2 C,D, _E,F,G,A, | B,2 B,,C, D,E,F,G, | A,2 A,,B,, C,D,_E,F, | G,3 A, B,2 B,2 | F,3 G, A,2 A,2 | %15
 E,3 F, G,2 G,2 | D,3 E, F,G,A,B, | C2 C,D, _E,F,G,A, | B,2 B,,C, D,E,F,G, | A,3 G, F,3 E, | %20
 D,3 C, B,,4 | F,3 _E, D,3 C, | B,,2 _E,2 C,2 F,2 | D,2 G,3 F, _E,2 | E,D, C,4 G,,2 | %25
 D,2 _E,2 D,4 | G,,8 |] %27

